<?xml version="1.0" encoding="UTF-8"?>
<map version="1.4" tiledversion="1.4.2" orientation="orthogonal" renderorder="right-down" width="9" height="48" tilewidth="16" tileheight="16" infinite="0" nextlayerid="5" nextobjectid="1">
 <editorsettings>
  <export target="Level3.csv" format="csv"/>
 </editorsettings>
 <tileset firstgid="1" source="LD48Tiles.tsx"/>
 <tileset firstgid="737" source="LD48Entities.tsx"/>
 <layer id="1" name="Blocks" width="9" height="48">
  <data encoding="csv">
39,0,0,0,0,0,0,0,37,
39,0,0,0,0,0,0,0,37,
39,0,0,0,0,0,0,0,37,
39,0,0,0,0,0,0,0,37,
39,0,0,0,0,0,0,0,37,
39,0,0,0,0,0,0,0,37,
38,6,7,0,0,0,0,0,37,
38,70,38,6,7,0,0,0,37,
39,0,69,70,71,0,0,0,37,
39,0,0,0,0,0,0,5,38,
39,0,0,0,0,0,0,37,38,
39,0,0,0,0,5,6,38,38,
39,0,0,0,0,69,38,38,38,
39,0,0,0,0,0,37,38,38,
39,0,0,0,0,0,69,69,38,
39,0,0,0,0,0,0,37,38,
39,0,0,0,0,0,0,69,38,
39,0,0,0,0,0,0,0,37,
39,0,0,0,0,0,0,0,37,
39,0,0,0,0,0,0,0,37,
39,0,0,0,0,0,0,0,37,
38,6,7,0,0,0,0,0,37,
38,38,38,6,7,0,0,0,37,
38,38,70,70,71,0,0,0,37,
38,71,0,0,0,0,0,0,37,
39,0,0,0,0,0,0,0,37,
39,0,0,0,0,0,5,6,38,
39,0,0,0,0,0,37,38,38,
39,0,0,0,0,0,69,38,38,
39,0,0,0,0,0,0,69,38,
39,0,0,0,0,0,0,0,37,
39,0,0,0,0,0,5,6,38,
38,6,7,0,0,5,38,38,38,
38,38,71,0,0,69,70,70,38,
38,71,0,0,0,0,0,0,37,
39,0,0,0,0,0,0,0,37,
39,0,0,0,0,0,0,0,37,
39,0,0,101,103,0,0,0,37,
39,0,0,0,0,0,0,0,37,
39,0,0,0,0,0,0,0,37,
39,0,0,0,0,0,0,0,37,
39,0,0,0,0,0,0,0,37,
39,0,0,0,0,0,0,0,37,
39,0,0,0,0,0,0,0,37,
39,0,0,0,0,0,0,0,37,
39,0,0,0,0,0,0,0,37,
39,0,0,0,0,0,0,0,37,
39,0,0,0,0,0,0,0,37
</data>
 </layer>
 <layer id="3" name="Dirt" width="9" height="48">
  <data encoding="csv">
0,0,0,0,0,0,0,0,0,
0,0,0,0,0,0,0,0,0,
0,0,0,0,0,0,0,0,0,
0,0,0,0,0,0,0,0,0,
0,1,2,2,2,2,2,3,0,
0,65,66,34,34,34,34,35,0,
0,0,0,65,66,34,34,35,0,
0,0,0,0,0,33,34,35,0,
0,4,0,0,0,33,34,67,0,
0,33,2,3,0,33,35,0,0,
0,33,34,35,0,65,67,0,0,
0,33,34,35,0,0,0,0,0,
0,33,34,34,3,0,0,0,0,
0,228,229,230,257,225,0,0,0,
0,33,34,34,34,35,0,0,0,
0,65,66,66,66,66,99,0,0,
0,0,0,0,0,0,0,0,0,
0,1,3,0,0,0,97,3,0,
0,33,34,99,0,0,0,36,0,
0,33,35,0,0,0,0,36,0,
0,65,66,2,2,2,2,35,0,
0,0,0,65,66,66,34,35,0,
0,0,0,0,0,0,33,35,0,
0,0,0,0,0,0,65,35,0,
0,0,0,0,0,0,0,65,0,
0,4,0,0,0,0,0,0,0,
0,36,0,0,0,0,0,0,0,
0,33,3,0,0,0,0,0,0,
0,33,34,2,2,3,0,0,0,
0,33,34,34,34,34,3,0,0,
0,33,34,34,34,34,66,99,0,
0,65,66,34,34,67,0,0,0,
0,0,0,33,35,0,0,0,0,
0,0,0,65,35,0,0,0,0,
0,0,0,0,33,98,98,99,0,
0,0,0,0,36,0,0,0,0,
0,0,0,0,68,0,0,0,0,
0,0,0,0,0,0,0,0,0,
0,0,1,2,3,0,0,0,0,
0,1,34,34,35,0,4,0,0,
0,33,34,34,66,2,34,3,0,
0,33,34,67,0,65,34,35,0,
0,65,67,0,0,0,65,67,0,
0,0,0,0,0,0,0,0,0,
0,0,0,0,0,0,0,0,0,
0,0,0,0,0,0,0,0,0,
0,0,0,0,0,0,0,0,0,
0,0,0,0,0,0,0,0,0
</data>
 </layer>
 <layer id="4" name="SuperDirt" width="9" height="48">
  <data encoding="csv">
0,0,0,0,0,0,0,0,0,
0,0,0,0,0,0,0,0,0,
0,0,0,0,0,0,0,0,0,
0,0,0,0,0,0,0,0,0,
0,0,0,0,0,0,0,0,0,
0,0,0,0,0,0,0,0,0,
0,0,0,0,0,0,0,0,0,
0,0,0,0,0,0,0,0,0,
0,0,0,0,0,0,0,0,0,
0,0,0,0,0,0,0,0,0,
0,0,0,0,0,0,0,0,0,
0,0,0,0,0,0,0,0,0,
0,0,0,0,0,0,0,0,0,
0,0,0,0,0,0,0,0,0,
0,0,0,0,0,0,0,0,0,
0,0,0,0,0,0,0,0,0,
0,105,106,10,10,10,107,0,0,
0,0,0,73,42,75,0,0,0,
0,0,0,0,76,0,0,0,0,
0,0,0,0,0,0,0,0,0,
0,0,0,0,0,0,0,0,0,
0,0,0,0,0,0,0,0,0,
0,0,0,0,0,12,0,0,0,
0,0,0,0,0,44,0,0,0,
0,0,0,0,105,74,11,0,0,
0,0,0,0,0,0,73,107,0,
0,0,0,0,0,0,0,0,0,
0,0,0,0,0,0,0,0,0,
0,0,0,0,0,0,0,0,0,
0,0,0,0,0,0,0,0,0,
0,0,0,0,0,0,0,0,0,
0,0,0,0,0,0,0,0,0,
0,0,0,0,0,0,0,0,0,
0,0,0,0,0,0,0,0,0,
0,0,9,11,0,0,0,0,0,
0,0,73,75,0,0,0,0,0,
0,0,0,0,0,0,0,0,0,
0,9,11,0,0,0,0,0,0,
0,76,0,0,0,0,0,0,0,
0,0,0,0,0,0,0,0,0,
0,0,0,0,0,0,0,0,0,
0,0,0,0,0,0,0,0,0,
0,0,0,0,0,0,0,0,0,
0,0,0,0,0,0,0,0,0,
0,0,0,0,0,0,0,0,0,
0,0,0,0,0,0,0,0,0,
0,0,0,0,0,0,0,0,0,
0,0,0,0,0,0,0,0,0
</data>
 </layer>
 <layer id="2" name="Entities" width="9" height="48">
  <data encoding="csv">
0,0,0,0,0,0,0,0,0,
0,0,0,0,0,0,0,0,0,
0,0,0,0,0,0,0,0,0,
0,0,0,0,737,0,0,0,0,
0,0,0,0,0,0,0,0,0,
0,0,0,0,0,0,0,0,0,
0,0,0,0,0,0,0,0,0,
0,0,0,0,0,0,0,0,0,
0,756,0,0,0,0,0,0,0,
0,0,0,0,0,0,0,0,0,
0,0,0,0,766,0,0,0,0,
0,0,0,0,782,0,0,0,0,
0,0,0,0,757,0,0,0,0,
0,0,0,0,0,0,0,0,0,
0,0,0,0,0,0,0,0,0,
0,0,0,0,0,0,0,0,0,
0,0,0,0,0,0,0,0,0,
0,0,0,0,0,0,0,755,0,
0,0,757,0,0,0,0,0,0,
0,0,0,0,0,0,0,0,0,
0,0,0,0,0,0,0,0,0,
0,0,0,0,0,0,0,0,0,
0,0,0,0,0,0,0,0,0,
0,0,0,0,0,0,0,0,0,
0,0,0,0,0,0,0,0,0,
0,0,0,0,0,0,0,0,0,
0,755,0,0,0,0,0,0,0,
0,0,756,0,746,0,0,0,0,
0,0,0,0,0,0,0,0,0,
0,0,0,0,0,0,0,0,0,
0,0,0,0,0,0,0,0,0,
0,0,0,0,0,0,0,0,0,
0,0,0,0,0,0,0,0,0,
0,0,0,0,0,0,0,0,0,
0,0,0,0,0,0,0,0,0,
0,764,0,0,0,0,0,0,0,
0,0,782,0,0,0,0,0,0,
0,0,757,0,0,0,0,0,0,
0,0,0,0,0,0,0,0,0,
0,0,0,0,0,782,756,782,0,
0,0,0,0,0,0,0,0,0,
0,0,756,0,0,0,0,0,0,
0,0,0,0,0,0,0,0,0,
0,0,0,0,0,0,0,0,0,
0,0,0,0,0,0,0,0,0,
0,0,0,0,0,0,0,0,0,
0,0,0,0,0,0,0,0,0,
0,0,0,0,0,0,0,0,0
</data>
 </layer>
</map>
