<?xml version="1.0" encoding="UTF-8"?>
<map version="1.4" tiledversion="1.4.2" orientation="orthogonal" renderorder="right-down" width="9" height="32" tilewidth="16" tileheight="16" infinite="0" nextlayerid="5" nextobjectid="1">
 <editorsettings>
  <export target="TestMap.csv" format="csv"/>
 </editorsettings>
 <tileset firstgid="1" source="LD48Tiles.tsx"/>
 <tileset firstgid="737" source="LD48Entities.tsx"/>
 <layer id="1" name="Blocks" width="9" height="32">
  <data encoding="csv">
39,0,0,0,0,0,0,0,37,
39,0,0,0,0,0,0,0,37,
39,0,0,0,0,0,0,0,37,
39,0,0,0,0,0,0,0,37,
39,0,0,0,0,0,0,0,37,
39,0,0,0,0,0,0,0,37,
39,0,0,0,0,0,0,0,37,
39,0,0,0,0,0,0,0,37,
39,0,0,0,0,0,0,5,38,
39,0,0,0,0,0,5,38,38,
39,0,0,0,0,0,37,38,38,
39,0,0,0,0,0,37,38,38,
39,0,0,0,0,0,69,38,38,
39,0,0,0,0,0,0,38,38,
39,0,0,0,0,0,0,69,38,
39,0,0,0,0,0,0,0,37,
39,0,0,0,0,0,0,0,37,
39,0,0,0,0,0,0,0,37,
39,0,0,0,0,0,0,0,37,
39,0,0,0,0,0,0,0,37,
39,0,0,0,0,0,0,0,37,
39,0,0,0,0,0,0,0,37,
39,0,0,0,0,0,0,0,37,
39,0,0,0,0,0,0,0,37,
39,0,0,0,0,0,0,0,37,
39,0,0,0,0,0,0,0,37,
39,0,0,0,0,0,0,0,37,
39,0,0,0,0,0,0,0,37,
39,0,0,0,0,0,0,0,37,
39,0,0,0,0,0,0,0,37,
39,0,0,0,0,0,0,0,37,
39,0,0,0,0,0,0,0,37
</data>
 </layer>
 <layer id="3" name="Dirt" width="9" height="32">
  <data encoding="csv">
0,0,0,0,0,0,0,0,0,
0,0,0,0,0,0,0,0,0,
0,0,0,0,0,0,0,0,0,
0,0,0,0,0,0,0,0,0,
0,2,2,2,2,2,98,99,0,
0,33,34,194,34,35,0,0,0,
0,33,225,226,227,35,0,0,0,
0,33,66,66,34,34,2,2,0,
0,36,0,0,65,34,34,0,0,
0,67,0,0,0,33,0,0,0,
0,0,0,0,0,33,0,0,0,
0,0,0,0,0,0,0,0,0,
0,1,2,0,0,0,0,0,0,
0,33,34,34,0,0,0,0,0,
0,33,196,197,198,34,34,0,0,
0,33,34,34,34,34,34,35,0,
0,33,34,34,34,34,34,35,0,
0,33,34,34,34,34,34,35,0,
0,33,34,34,199,197,200,35,0,
0,33,34,34,34,34,34,35,0,
0,65,66,66,66,66,66,67,0,
0,0,0,0,0,0,0,0,0,
0,0,0,0,0,0,0,0,0,
0,1,2,2,2,2,2,3,0,
0,33,34,34,34,34,34,35,0,
0,33,34,34,34,34,34,35,0,
0,33,34,34,34,34,34,35,0,
0,33,34,34,34,34,34,35,0,
0,33,34,34,34,34,34,35,0,
0,33,34,34,34,34,34,35,0,
0,33,34,34,34,34,34,35,0,
0,33,34,34,34,34,34,35,0
</data>
 </layer>
 <layer id="4" name="SuperDirt" width="9" height="32">
  <data encoding="csv">
0,0,0,0,0,0,0,0,0,
0,0,0,0,0,0,0,0,0,
0,0,0,0,0,0,0,0,0,
0,0,0,0,0,0,0,0,0,
0,0,0,0,0,0,0,0,0,
0,0,0,0,0,0,0,0,0,
0,0,0,0,0,0,0,0,0,
0,0,0,0,0,0,0,0,0,
0,0,0,0,0,0,0,0,0,
0,0,0,0,0,0,0,0,0,
0,0,0,0,0,0,0,0,0,
0,0,0,0,0,12,0,0,0,
0,0,0,105,10,43,0,0,0,
0,0,0,0,73,106,107,0,0,
0,0,0,0,0,0,0,0,0,
0,0,0,0,0,0,0,0,0,
0,0,0,0,0,0,0,0,0,
0,0,0,0,0,0,0,0,0,
0,0,0,0,0,0,0,0,0,
0,0,0,0,0,0,0,0,0,
0,0,0,0,0,0,0,0,0,
0,0,0,0,0,0,0,0,0,
0,0,0,0,0,0,0,0,0,
0,0,0,0,0,0,0,0,0,
0,0,0,0,0,0,0,0,0,
0,0,0,0,0,0,0,0,0,
0,0,0,0,0,0,0,0,0,
0,0,0,0,0,0,0,0,0,
0,0,0,0,0,0,0,0,0,
0,0,0,0,0,0,0,0,0,
0,0,0,0,0,0,0,0,0,
0,0,0,0,0,0,0,0,0
</data>
 </layer>
 <layer id="2" name="Entities" width="9" height="32">
  <data encoding="csv">
0,0,0,0,0,0,0,0,0,
0,0,0,0,0,0,0,0,0,
0,0,0,0,0,0,0,0,0,
0,0,0,0,737,0,0,0,0,
0,0,0,0,0,0,0,0,0,
0,0,0,0,0,0,0,0,0,
0,0,0,0,0,0,765,0,0,
0,0,0,0,0,0,0,0,0,
0,0,0,0,755,0,0,0,0,
0,0,0,0,0,0,0,0,0,
0,0,0,0,0,0,0,0,0,
0,782,782,782,782,755,0,0,0,
0,0,0,0,0,0,0,0,0,
0,0,0,0,0,0,0,0,0,
0,0,0,0,0,0,0,0,0,
0,0,755,0,0,0,0,0,0,
0,0,0,0,0,0,0,0,0,
0,0,0,0,0,0,755,0,0,
0,0,0,0,0,0,0,0,0,
0,0,0,0,0,0,0,0,0,
0,0,0,0,0,0,0,0,0,
0,764,765,766,764,765,766,764,0,
0,0,0,0,0,747,0,0,0,
0,0,0,0,0,0,0,0,0,
0,0,0,0,0,0,0,0,0,
0,0,0,0,0,0,0,0,0,
0,0,0,0,0,0,0,0,0,
0,0,0,0,0,0,0,0,0,
0,0,0,0,0,0,0,0,0,
0,0,0,0,0,0,0,0,0,
0,0,0,0,0,0,0,0,0,
0,0,0,0,0,0,0,0,0
</data>
 </layer>
</map>
