<?xml version="1.0" encoding="UTF-8"?>
<map version="1.4" tiledversion="1.4.2" orientation="orthogonal" renderorder="right-down" width="9" height="48" tilewidth="16" tileheight="16" infinite="0" nextlayerid="5" nextobjectid="1">
 <editorsettings>
  <export target="Level1.csv" format="csv"/>
 </editorsettings>
 <tileset firstgid="1" source="LD48Tiles.tsx"/>
 <tileset firstgid="737" source="LD48Entities.tsx"/>
 <layer id="1" name="Blocks" width="9" height="48">
  <data encoding="csv">
39,0,0,0,0,0,0,0,37,
39,0,0,0,0,0,0,0,37,
39,0,0,0,0,0,0,0,37,
39,0,0,0,0,0,0,0,37,
39,0,0,0,0,0,0,0,37,
39,0,0,0,0,0,0,0,37,
39,0,0,0,0,0,0,0,37,
39,0,0,0,0,0,0,0,37,
39,0,0,0,0,0,0,0,37,
39,0,0,0,0,0,0,0,37,
39,0,0,0,0,0,0,0,37,
39,0,0,0,0,0,0,0,37,
39,0,0,0,0,0,0,0,37,
39,0,0,0,0,0,0,0,37,
39,0,0,0,0,0,0,0,37,
39,0,0,0,0,0,0,0,37,
39,0,0,0,0,0,0,0,37,
39,0,0,0,0,0,0,0,37,
39,0,0,0,0,0,5,6,38,
39,0,0,0,0,101,38,38,38,
38,6,7,0,0,0,69,70,38,
38,38,71,0,0,0,0,0,37,
38,71,0,0,0,0,0,0,37,
39,0,0,0,0,0,0,0,37,
39,0,0,0,0,0,0,0,37,
39,0,0,0,0,0,0,0,37,
39,0,0,0,0,0,0,0,37,
39,0,0,0,0,0,0,0,37,
39,0,0,0,0,0,0,0,37,
39,0,0,0,0,0,0,0,37,
39,0,0,0,0,0,0,0,37,
39,0,0,0,0,0,0,0,37,
39,0,0,0,0,0,0,0,37,
39,0,0,0,0,0,0,0,37,
39,0,0,0,0,0,0,0,37,
39,0,0,0,0,0,0,0,37,
39,0,0,0,0,0,0,0,37,
39,0,0,0,0,0,0,0,37,
39,0,0,0,0,0,0,0,37,
39,0,0,0,0,0,0,0,37,
39,0,0,0,0,0,0,0,37,
39,0,0,0,0,0,0,0,37,
39,0,0,0,0,0,0,0,37,
39,0,0,0,0,0,0,0,37,
39,0,0,0,0,0,0,0,37,
39,0,0,0,0,0,0,0,37,
39,0,0,0,0,0,0,0,37,
39,0,0,0,0,0,0,0,37
</data>
 </layer>
 <layer id="3" name="Dirt" width="9" height="48">
  <data encoding="csv">
0,0,0,0,0,0,0,0,0,
0,0,0,0,0,0,0,0,0,
0,0,0,0,0,0,0,0,0,
0,0,0,0,0,0,0,0,0,
0,1,2,2,2,2,2,3,0,
0,33,34,34,194,34,34,35,0,
0,33,34,225,226,227,34,35,0,
0,33,34,257,258,259,34,35,0,
0,33,34,34,34,34,34,35,0,
0,33,34,34,34,34,34,35,0,
0,33,34,34,34,34,34,35,0,
0,33,34,34,34,34,34,35,0,
0,33,34,34,34,34,34,35,0,
0,33,34,34,34,34,34,35,0,
0,33,34,34,34,34,34,35,0,
0,33,34,34,34,34,34,35,0,
0,33,34,34,34,66,66,66,0,
0,33,34,34,35,0,0,0,0,
0,33,34,34,35,0,0,0,0,
0,65,66,34,35,0,0,0,0,
0,0,0,65,66,3,0,0,0,
0,0,0,0,0,65,98,99,0,
0,0,0,0,0,0,0,0,0,
0,1,2,2,2,2,2,3,0,
0,33,34,34,34,34,34,35,0,
0,33,34,34,34,34,34,35,0,
0,33,34,66,66,34,34,35,0,
0,33,35,0,0,65,34,35,0,
0,33,35,0,0,0,33,35,0,
0,33,35,0,4,0,33,35,0,
0,33,34,2,34,2,34,35,0,
0,33,34,34,34,34,34,35,0,
0,33,34,66,34,34,34,35,0,
0,33,35,0,33,34,34,35,0,
0,33,35,0,33,34,34,35,0,
0,33,35,0,33,34,34,35,0,
0,33,35,0,33,34,34,35,0,
0,33,35,0,33,34,34,35,0,
0,33,35,0,33,34,34,35,0,
0,33,34,2,34,34,34,35,0,
0,33,34,34,34,34,34,35,0,
0,33,34,34,34,34,34,35,0,
0,65,66,66,66,66,66,67,0,
0,0,0,0,0,0,0,0,0,
0,0,0,0,0,0,0,0,0,
0,0,0,0,0,0,0,0,0,
0,0,0,0,0,0,0,0,0,
0,0,0,0,0,0,0,0,0
</data>
 </layer>
 <layer id="4" name="SuperDirt" width="9" height="48">
  <data encoding="csv">
0,0,0,0,0,0,0,0,0,
0,0,0,0,0,0,0,0,0,
0,0,0,0,0,0,0,0,0,
0,0,0,0,0,0,0,0,0,
0,0,0,0,0,0,0,0,0,
0,0,0,0,0,0,0,0,0,
0,0,0,0,0,0,0,0,0,
0,0,0,0,0,0,0,0,0,
0,0,0,0,0,0,0,0,0,
0,0,0,0,0,0,0,0,0,
0,0,0,0,0,0,0,0,0,
0,0,0,0,0,0,0,0,0,
0,0,0,0,0,0,0,0,0,
0,0,0,0,0,0,0,0,0,
0,0,0,0,0,0,0,0,0,
0,0,0,0,0,0,0,0,0,
0,0,0,0,0,0,0,0,0,
0,0,0,0,0,0,0,0,0,
0,0,0,0,0,0,0,0,0,
0,0,0,0,0,0,0,0,0,
0,0,0,0,0,0,0,0,0,
0,0,0,0,0,0,0,0,0,
0,0,0,0,0,0,0,0,0,
0,0,0,0,0,0,0,0,0,
0,0,0,0,0,0,0,0,0,
0,0,0,0,0,0,0,0,0,
0,0,0,0,0,0,0,0,0,
0,0,0,0,0,0,0,0,0,
0,0,0,0,0,0,0,0,0,
0,0,0,0,0,0,0,0,0,
0,0,0,0,0,0,0,0,0,
0,0,0,0,0,0,0,0,0,
0,0,0,0,0,0,0,0,0,
0,0,0,0,0,0,0,0,0,
0,0,0,0,0,0,0,0,0,
0,0,0,0,0,0,0,0,0,
0,0,0,0,0,0,0,0,0,
0,0,0,0,0,0,0,0,0,
0,0,0,0,0,0,0,0,0,
0,0,0,0,0,0,0,0,0,
0,0,0,0,0,0,0,0,0,
0,0,0,0,0,0,0,0,0,
0,0,0,0,0,0,0,0,0,
0,0,0,0,0,0,0,0,0,
0,0,0,0,0,0,0,0,0,
0,0,0,0,0,0,0,0,0,
0,0,0,0,0,0,0,0,0,
0,0,0,0,0,0,0,0,0
</data>
 </layer>
 <layer id="2" name="Entities" width="9" height="48">
  <data encoding="csv">
0,0,0,0,0,0,0,0,0,
0,0,0,0,0,0,0,0,0,
0,0,0,0,0,0,0,0,0,
0,0,0,0,737,0,0,0,0,
0,0,0,0,0,0,0,0,0,
0,0,0,0,0,0,0,0,0,
0,0,0,0,0,0,0,0,0,
0,0,0,0,0,0,0,0,0,
0,0,0,0,0,0,0,0,0,
0,0,0,0,0,0,757,0,0,
0,0,0,0,0,0,0,0,0,
0,0,756,0,0,0,0,0,0,
0,0,0,0,0,0,0,0,0,
0,0,0,0,0,0,0,0,0,
0,0,0,0,0,0,0,0,0,
0,0,0,0,0,755,0,0,0,
0,0,0,0,0,0,0,0,0,
0,0,0,0,0,0,782,782,0,
0,0,0,0,0,782,0,0,0,
0,0,0,0,0,0,0,0,0,
0,0,0,0,0,0,0,0,0,
0,0,0,0,0,0,757,756,0,
0,0,0,0,0,0,0,0,0,
0,0,0,0,0,0,0,0,0,
0,0,0,0,0,0,0,0,0,
0,0,0,0,0,0,0,0,0,
0,0,756,0,0,0,0,0,0,
0,0,0,0,0,0,0,0,0,
0,0,0,0,782,0,0,0,0,
0,0,0,782,755,782,757,0,0,
0,0,0,0,0,0,0,0,0,
0,0,0,0,0,0,0,0,0,
0,0,0,0,0,0,0,0,0,
0,0,0,0,0,0,0,0,0,
0,0,0,0,0,0,0,0,0,
0,0,756,0,0,0,0,0,0,
0,0,0,764,0,0,0,0,0,
0,0,0,0,757,0,0,0,0,
0,0,0,0,0,0,757,0,0,
0,0,0,0,0,0,0,0,0,
0,0,0,0,0,0,0,0,0,
0,0,0,0,0,0,0,0,0,
0,0,0,0,0,0,0,0,0,
0,0,0,0,0,0,0,0,0,
0,0,0,0,0,0,0,0,0,
0,0,0,0,0,0,0,0,0,
0,0,0,0,0,0,0,0,0,
0,0,0,0,0,0,0,0,0
</data>
 </layer>
</map>
