<?xml version="1.0" encoding="UTF-8"?>
<map version="1.4" tiledversion="1.4.2" orientation="orthogonal" renderorder="right-down" width="9" height="48" tilewidth="16" tileheight="16" infinite="0" nextlayerid="5" nextobjectid="1">
 <editorsettings>
  <export target="." format="csv"/>
 </editorsettings>
 <tileset firstgid="1" source="LD48Tiles.tsx"/>
 <tileset firstgid="737" source="LD48Entities.tsx"/>
 <layer id="1" name="Blocks" width="9" height="48">
  <data encoding="csv">
39,0,0,0,0,0,0,0,37,
39,0,0,0,0,0,0,0,37,
39,0,0,0,0,0,0,0,37,
39,0,0,0,0,0,0,0,37,
39,0,0,0,0,0,0,0,37,
39,0,0,0,0,0,0,0,37,
39,0,0,0,0,0,0,0,37,
39,0,0,0,0,0,0,0,37,
39,0,0,0,0,0,0,0,37,
39,0,0,0,0,0,0,0,37,
39,0,0,0,0,0,0,0,37,
39,0,0,0,0,0,0,0,37,
39,0,0,0,0,0,0,0,37,
39,0,0,0,0,0,0,0,37,
39,0,0,0,0,0,0,0,37,
39,0,0,0,0,0,0,0,37,
39,0,0,0,0,0,0,0,37,
39,0,0,0,0,0,0,0,37,
39,0,0,0,0,0,0,0,37,
39,0,0,0,0,0,0,0,37,
39,0,0,0,0,0,0,0,37,
39,0,0,0,0,0,0,0,37,
39,0,0,0,0,0,0,0,37,
39,0,0,0,0,0,0,0,37,
39,0,0,0,0,0,0,0,37,
39,0,0,0,0,0,0,0,37,
39,0,0,0,0,0,0,0,37,
39,0,0,0,0,0,0,0,37,
39,0,0,0,0,0,0,0,37,
39,0,0,0,0,0,0,0,37,
39,0,0,0,0,0,0,0,37,
39,0,0,0,0,0,0,0,37,
39,0,0,0,0,0,0,0,37,
39,0,0,0,0,0,0,0,37,
39,0,0,0,0,0,0,0,37,
39,0,0,0,0,0,0,0,37,
39,0,0,0,0,0,0,0,37,
39,0,0,0,0,0,0,0,37,
39,0,0,0,0,0,0,0,37,
39,0,0,0,0,0,0,0,37,
39,0,0,0,0,0,0,0,37,
39,0,0,0,0,0,0,0,37,
39,0,0,0,0,0,0,0,37,
39,0,0,0,0,0,0,0,37,
39,0,0,0,0,0,0,0,37,
39,0,0,0,0,0,0,0,37,
39,0,0,0,0,0,0,0,37,
39,0,0,0,0,0,0,0,37
</data>
 </layer>
 <layer id="3" name="Dirt" width="9" height="48">
  <data encoding="csv">
0,0,0,0,0,0,0,0,0,
0,0,0,0,0,0,0,0,0,
0,0,0,0,0,0,0,0,0,
0,0,0,0,0,0,0,0,0,
0,1,2,2,2,2,2,3,0,
0,33,34,34,34,34,34,35,0,
0,33,34,34,34,34,34,35,0,
0,65,66,66,66,66,66,67,0,
0,0,0,0,0,0,0,0,0,
0,0,0,0,0,0,0,0,0,
0,0,0,0,0,0,0,0,0,
0,1,2,2,2,2,2,3,0,
0,33,34,34,34,34,34,35,0,
0,33,34,34,34,34,34,35,0,
0,33,34,34,34,34,34,35,0,
0,33,34,34,34,34,34,35,0,
0,33,34,34,34,34,34,35,0,
0,33,34,34,34,34,34,35,0,
0,33,34,34,34,34,34,35,0,
0,33,34,34,34,34,34,35,0,
0,33,34,34,34,34,34,35,0,
0,33,34,34,34,34,34,35,0,
0,33,34,34,34,34,34,35,0,
0,33,34,34,34,34,34,35,0,
0,33,34,34,34,34,34,35,0,
0,33,34,34,34,34,34,35,0,
0,33,34,34,34,34,34,35,0,
0,33,34,34,34,34,34,35,0,
0,33,34,34,34,34,34,35,0,
0,33,34,34,34,34,34,35,0,
0,33,34,34,34,34,34,35,0,
0,33,34,34,34,34,34,35,0,
0,33,34,34,34,34,34,35,0,
0,33,34,34,34,34,34,35,0,
0,33,34,34,34,34,34,35,0,
0,33,34,34,34,34,34,35,0,
0,33,34,34,34,34,34,35,0,
0,33,34,34,34,34,34,35,0,
0,33,34,34,34,34,34,35,0,
0,33,34,34,34,34,34,35,0,
0,33,34,34,34,34,34,35,0,
0,33,34,34,34,34,34,35,0,
0,65,66,66,66,66,66,67,0,
0,0,0,0,0,0,0,0,0,
0,0,0,0,0,0,0,0,0,
0,0,0,0,0,0,0,0,0,
0,0,0,0,0,0,0,0,0,
0,0,0,0,0,0,0,0,0
</data>
 </layer>
 <layer id="4" name="SuperDirt" width="9" height="48">
  <data encoding="csv">
0,0,0,0,0,0,0,0,0,
0,0,0,0,0,0,0,0,0,
0,0,0,0,0,0,0,0,0,
0,0,0,0,0,0,0,0,0,
0,0,0,0,0,0,0,0,0,
0,0,0,0,0,0,0,0,0,
0,0,0,0,0,0,0,0,0,
0,0,0,0,0,0,0,0,0,
0,0,0,0,0,0,0,0,0,
0,0,0,0,0,0,0,0,0,
0,0,0,0,0,0,0,0,0,
0,0,0,0,0,0,0,0,0,
0,0,0,0,0,0,0,0,0,
0,0,0,0,0,0,0,0,0,
0,0,0,0,0,0,0,0,0,
0,0,0,0,0,0,0,0,0,
0,0,0,0,0,0,0,0,0,
0,0,0,0,0,0,0,0,0,
0,0,0,0,0,0,0,0,0,
0,0,0,0,0,0,0,0,0,
0,0,0,0,0,0,0,0,0,
0,0,0,0,0,0,0,0,0,
0,0,0,0,0,0,0,0,0,
0,0,0,0,0,0,0,0,0,
0,0,0,0,0,0,0,0,0,
0,0,0,0,0,0,0,0,0,
0,0,0,0,0,0,0,0,0,
0,0,0,0,0,0,0,0,0,
0,0,0,0,0,0,0,0,0,
0,0,0,0,0,0,0,0,0,
0,0,0,0,0,0,0,0,0,
0,0,0,0,0,0,0,0,0,
0,0,0,0,0,0,0,0,0,
0,0,0,0,0,0,0,0,0,
0,0,0,0,0,0,0,0,0,
0,0,0,0,0,0,0,0,0,
0,0,0,0,0,0,0,0,0,
0,0,0,0,0,0,0,0,0,
0,0,0,0,0,0,0,0,0,
0,0,0,0,0,0,0,0,0,
0,0,0,0,0,0,0,0,0,
0,0,0,0,0,0,0,0,0,
0,0,0,0,0,0,0,0,0,
0,0,0,0,0,0,0,0,0,
0,0,0,0,0,0,0,0,0,
0,0,0,0,0,0,0,0,0,
0,0,0,0,0,0,0,0,0,
0,0,0,0,0,0,0,0,0
</data>
 </layer>
 <layer id="2" name="Entities" width="9" height="48">
  <data encoding="csv">
0,0,0,0,0,0,0,0,0,
0,0,0,0,0,0,0,0,0,
0,0,0,0,0,0,0,0,0,
0,0,0,0,737,0,0,0,0,
0,0,0,0,0,0,0,0,0,
0,0,0,0,0,0,0,0,0,
0,0,0,0,0,0,0,0,0,
0,0,0,756,0,0,0,0,0,
0,0,746,0,0,0,0,0,0,
0,0,0,0,766,0,0,0,0,
0,0,0,0,0,0,747,0,0,
0,0,0,0,0,0,0,0,0,
0,0,0,0,0,0,0,0,0,
0,0,0,0,0,0,0,0,0,
0,0,0,0,0,0,0,0,0,
0,0,0,0,0,0,0,0,0,
0,0,0,0,0,0,0,0,0,
0,0,0,0,0,0,0,0,0,
0,0,0,0,0,0,0,0,0,
0,0,0,0,0,0,0,0,0,
0,0,0,0,0,0,0,0,0,
0,0,0,0,0,0,0,0,0,
0,0,0,0,0,0,0,0,0,
0,0,0,0,0,0,0,0,0,
0,0,0,0,0,0,0,0,0,
0,0,0,0,0,0,0,0,0,
0,0,0,0,0,0,0,0,0,
0,0,0,0,0,0,0,0,0,
0,0,0,0,0,0,0,0,0,
0,0,0,0,0,0,0,0,0,
0,0,0,0,0,0,0,0,0,
0,0,0,0,0,0,0,0,0,
0,0,0,0,0,0,0,0,0,
0,0,0,0,0,0,0,0,0,
0,0,0,0,0,0,0,0,0,
0,0,0,0,0,0,0,0,0,
0,0,0,0,0,0,0,0,0,
0,0,0,0,0,0,0,0,0,
0,0,0,0,0,0,0,0,0,
0,0,0,0,0,0,0,0,0,
0,0,0,0,0,0,0,0,0,
0,0,0,0,0,0,0,0,0,
0,0,0,0,0,0,0,0,0,
0,0,0,0,0,0,0,0,0,
0,0,0,0,0,0,0,0,0,
0,0,0,0,0,0,0,0,0,
0,0,0,0,0,0,0,0,0,
0,0,0,0,0,0,0,0,0
</data>
 </layer>
</map>
