<?xml version="1.0" encoding="UTF-8"?>
<map version="1.4" tiledversion="1.4.2" orientation="orthogonal" renderorder="right-down" width="9" height="48" tilewidth="16" tileheight="16" infinite="0" nextlayerid="5" nextobjectid="1">
 <editorsettings>
  <export target="Level2.csv" format="csv"/>
 </editorsettings>
 <tileset firstgid="1" source="LD48Tiles.tsx"/>
 <tileset firstgid="737" source="LD48Entities.tsx"/>
 <layer id="1" name="Blocks" width="9" height="48">
  <data encoding="csv">
39,0,0,0,0,0,0,0,37,
39,0,0,0,0,0,0,0,37,
39,0,0,0,0,0,0,0,37,
39,0,0,0,0,0,0,0,37,
39,0,0,0,0,0,0,0,37,
39,0,0,0,0,0,0,0,37,
39,0,0,0,0,0,0,0,37,
39,0,0,0,0,0,0,0,37,
39,0,0,0,0,0,0,0,37,
39,0,0,0,0,0,0,0,37,
39,0,0,0,0,0,0,0,37,
39,0,0,0,0,0,0,0,37,
39,0,0,0,0,0,0,0,37,
39,0,0,0,0,0,0,0,37,
39,0,0,0,0,0,0,0,37,
39,0,0,0,0,0,0,0,37,
39,0,0,0,0,0,0,0,37,
39,0,0,0,0,0,0,0,37,
39,0,0,0,0,0,0,0,37,
39,0,0,0,0,0,0,0,37,
39,0,0,0,0,0,0,0,37,
39,0,0,0,0,0,0,0,37,
39,0,0,0,0,0,0,0,37,
39,0,0,0,0,0,0,0,37,
39,0,0,0,0,0,0,0,37,
39,0,0,0,0,0,0,0,37,
39,0,0,0,0,0,0,0,37,
39,0,0,0,0,0,0,0,37,
39,0,0,0,0,0,0,0,37,
39,0,0,0,0,0,0,5,38,
39,0,0,0,0,0,0,37,38,
39,0,0,0,0,0,0,37,38,
39,0,0,0,0,0,0,37,38,
39,0,0,0,0,0,0,37,38,
39,0,0,0,0,0,0,37,38,
39,0,0,0,0,0,0,69,38,
39,0,0,0,0,0,0,0,37,
39,0,0,0,0,0,0,0,37,
39,0,0,0,0,0,0,0,37,
39,0,0,0,0,0,0,0,37,
39,0,0,0,0,0,0,0,37,
39,0,0,0,0,0,0,0,37,
39,0,0,0,0,0,0,0,37,
39,0,0,0,0,0,0,0,37,
39,0,0,0,0,0,0,0,37,
39,0,0,0,0,0,0,0,37,
39,0,0,0,0,0,0,0,37,
39,0,0,0,0,0,0,0,37
</data>
 </layer>
 <layer id="3" name="Dirt" width="9" height="48">
  <data encoding="csv">
0,0,0,0,0,0,0,0,0,
0,0,0,0,0,0,0,0,0,
0,0,0,0,0,0,0,0,0,
0,0,0,0,0,0,0,0,0,
0,1,2,2,2,2,2,3,0,
0,66,66,66,34,34,34,35,0,
0,0,0,0,65,34,34,35,0,
0,0,0,0,0,33,34,35,0,
0,0,0,0,0,33,34,35,0,
0,0,0,0,0,33,34,35,0,
0,0,0,0,1,34,34,35,0,
0,0,0,0,33,34,34,35,0,
0,0,1,2,34,34,34,35,0,
0,1,34,34,34,34,34,35,0,
0,33,34,34,34,34,34,35,0,
0,33,34,34,34,34,34,35,0,
0,33,34,34,34,66,66,67,0,
0,65,66,66,67,0,0,0,0,
0,0,0,0,0,0,0,0,0,
0,1,3,0,0,0,1,3,0,
0,33,34,2,2,2,34,34,0,
0,34,34,34,34,34,34,35,0,
0,65,34,34,34,34,34,35,0,
0,0,65,66,66,66,34,35,0,
0,0,0,0,0,0,33,35,0,
0,0,0,1,2,2,34,35,0,
0,0,1,34,34,34,34,35,0,
0,1,34,34,34,34,34,35,0,
0,33,66,66,66,34,34,67,0,
0,36,0,0,0,65,35,0,0,
0,67,0,0,0,0,36,0,0,
0,0,0,0,0,0,68,0,0,
0,0,0,0,0,0,0,0,0,
0,1,2,3,0,0,0,0,0,
0,33,34,34,3,0,0,0,0,
0,33,34,34,34,2,3,0,0,
0,33,34,34,34,34,34,35,0,
0,33,34,34,34,34,34,35,0,
0,33,34,34,34,34,34,35,0,
0,65,66,66,66,66,66,67,0,
0,0,0,0,0,0,0,0,0,
0,0,0,0,0,0,0,0,0,
0,97,98,98,98,98,98,99,0,
0,0,0,0,0,0,0,0,0,
0,0,0,0,0,0,0,0,0,
0,0,0,0,0,0,0,0,0,
0,0,0,0,0,0,0,0,0,
0,0,0,0,0,0,0,0,0
</data>
 </layer>
 <layer id="4" name="SuperDirt" width="9" height="48">
  <data encoding="csv">
0,0,0,0,0,0,0,0,0,
0,0,0,0,0,0,0,0,0,
0,0,0,0,0,0,0,0,0,
0,0,0,0,0,0,0,0,0,
0,0,0,0,0,0,0,0,0,
0,0,0,0,0,0,0,0,0,
0,9,10,11,0,0,0,0,0,
0,41,42,42,11,0,0,0,0,
0,41,42,42,43,0,0,0,0,
0,41,42,42,75,0,0,0,0,
0,41,42,43,0,0,0,0,0,
0,41,74,75,0,0,0,0,0,
0,76,0,0,0,0,0,0,0,
0,0,0,0,0,0,0,0,0,
0,0,0,0,0,0,0,0,0,
0,0,0,0,0,0,0,0,0,
0,0,0,0,0,0,0,0,0,
0,0,0,0,0,0,0,0,0,
0,0,0,0,0,0,0,0,0,
0,0,0,0,0,0,0,0,0,
0,0,0,0,0,0,0,0,0,
0,0,0,0,0,0,0,0,0,
0,0,0,0,0,0,0,0,0,
0,12,0,0,0,0,0,0,0,
0,44,0,0,0,0,0,0,0,
0,41,107,0,0,0,0,0,0,
0,108,0,0,0,0,0,0,0,
0,0,0,0,0,0,0,0,0,
0,0,0,0,0,0,0,0,0,
0,0,0,0,0,0,0,0,0,
0,0,0,0,0,0,0,0,0,
0,0,0,0,0,0,0,0,0,
0,0,0,0,0,0,12,0,0,
0,0,0,0,105,10,43,0,0,
0,0,0,0,0,73,106,0,0,
0,0,0,0,0,0,0,0,0,
0,0,0,0,0,0,0,0,0,
0,0,0,0,0,0,0,0,0,
0,0,0,0,0,0,0,0,0,
0,0,0,0,0,0,0,0,0,
0,0,0,0,0,0,0,0,0,
0,0,0,0,0,0,0,0,0,
0,0,0,0,0,0,0,0,0,
0,0,0,0,0,0,0,0,0,
0,0,0,0,0,0,0,0,0,
0,0,0,0,0,0,0,0,0,
0,0,0,0,0,0,0,0,0,
0,0,0,0,0,0,0,0,0
</data>
 </layer>
 <layer id="2" name="Entities" width="9" height="48">
  <data encoding="csv">
0,0,0,0,0,0,0,0,0,
0,0,0,0,0,0,0,0,0,
0,0,0,0,0,0,0,0,0,
0,0,0,0,737,0,0,0,0,
0,0,0,0,0,0,0,0,0,
0,0,0,0,0,0,0,0,0,
0,0,0,0,0,0,0,0,0,
0,0,0,756,0,0,0,0,0,
0,0,0,0,0,0,0,0,0,
0,0,0,0,0,0,0,0,0,
0,0,0,0,0,0,757,0,0,
0,0,757,0,0,0,0,0,0,
0,0,0,0,0,0,0,0,0,
0,0,0,0,0,0,0,0,0,
0,0,0,0,0,756,0,0,0,
0,0,0,0,0,0,0,0,0,
0,0,0,0,0,0,0,0,0,
0,0,0,0,0,0,0,0,0,
0,766,0,0,0,747,765,0,0,
0,0,0,0,0,0,0,0,0,
0,0,0,757,0,0,0,0,0,
0,0,0,0,0,0,0,0,0,
0,0,0,0,0,0,0,0,0,
0,0,0,0,0,0,0,0,0,
0,755,0,747,0,0,756,0,0,
0,0,0,0,0,0,0,0,0,
0,0,0,0,0,0,0,0,0,
0,0,0,0,0,0,0,0,0,
0,0,0,0,0,0,0,0,0,
0,0,0,0,0,755,0,0,0,
0,0,0,0,0,0,0,0,0,
0,0,0,0,0,0,0,0,0,
0,766,0,0,747,0,756,0,0,
0,0,0,0,0,0,0,0,0,
0,0,0,0,0,0,0,0,0,
0,0,0,0,0,0,0,0,0,
0,0,0,757,0,0,0,0,0,
0,0,0,0,0,0,0,0,0,
0,0,0,0,0,0,0,0,0,
0,0,0,0,0,0,0,0,0,
0,766,765,766,764,766,765,766,0,
0,0,0,0,747,0,0,0,0,
0,0,0,0,0,0,0,0,0,
0,0,0,0,0,0,0,0,0,
0,0,0,0,0,0,0,0,0,
0,0,0,0,0,0,0,0,0,
0,0,0,0,0,0,0,0,0,
0,0,0,0,0,0,0,0,0
</data>
 </layer>
</map>
